assets/icons/l2-swap.svg

<svg width="44" height="120" viewBox="0 0 44 120" fill="none" xmlns="http://www.w3.org/2000/svg">
<g clip-path="url(#clip0_20323_6058)">
<g clip-path="url(#clip1_20323_6058)">
<path d="M31.384 13.0433V13.0218C31.2334 12.6345 30.6955 12.6345 30.5449 13.0218L27.9415 20.165C27.8769 20.3587 27.8769 20.5738 27.9415 20.789L34.8868 39.8326C34.2385 40.3019 33.5635 40.7367 32.8647 41.1343L26.9948 25.0276C26.8442 24.6403 26.3063 24.6403 26.1557 25.0276L23.5523 32.1708C23.4877 32.3645 23.4877 32.5796 23.5523 32.7948L27.3915 43.3345C25.6664 43.7691 23.8604 44 22.0001 44C20.2625 44 18.572 43.7986 16.9506 43.4176L29.6843 8.48195C29.7918 8.18073 29.5767 7.87951 29.2755 7.87951V7.90103H24.2623C23.8965 7.90103 23.5523 8.1377 23.4232 8.48195L11.4447 41.3071C10.7418 40.9222 10.0623 40.4998 9.40885 40.0428L20.9273 8.48195C21.0349 8.18073 20.8198 7.87951 20.5185 7.87951L20.497 7.90103H15.4838C15.1181 7.90103 14.7738 8.1377 14.6447 8.48195L4.73821 35.6405C1.77118 31.8911 0 27.1525 0 22.0001C0 9.84971 9.84971 0 22.0001 0C34.1505 0 44 9.84971 44 22.0001C44 27.0047 42.3291 31.6187 39.5144 35.3152L31.384 13.0433Z" fill="#213147"/>
<path d="M32.8648 41.1342C31.1685 42.0997 29.3312 42.8458 27.3916 43.3344L23.5523 32.7947C23.4878 32.5796 23.4878 32.3644 23.5523 32.1708L26.1557 25.0275C26.3063 24.6402 26.8442 24.6402 26.9948 25.0275L32.8648 41.1342Z" fill="#12AAFF"/>
<path d="M39.5144 35.315C38.2026 37.038 36.6422 38.5618 34.8868 39.8325L27.9415 20.7889C27.8769 20.5737 27.8769 20.3585 27.9415 20.1649L30.5449 13.0217C30.6955 12.6344 31.2334 12.6344 31.384 13.0217V13.0432L39.5144 35.315Z" fill="#12AAFF"/>
<path d="M20.9274 8.48184L9.40893 40.0427C7.64549 38.8098 6.07097 37.325 4.73828 35.6404L14.6448 8.48184C14.7739 8.13758 15.1181 7.90091 15.4839 7.90091H20.4971L20.5186 7.87939C20.8198 7.87939 21.035 8.18062 20.9274 8.48184Z" fill="white"/>
<path d="M29.6842 8.48184L16.9505 43.4174C15.0026 42.9602 13.1547 42.244 11.4446 41.307L23.4231 8.48184C23.5522 8.13758 23.8964 7.90091 24.2622 7.90091H29.2754V7.87939C29.5766 7.87939 29.7917 8.18062 29.6842 8.48184Z" fill="white"/>
<circle cx="22" cy="22" r="21" stroke="#016BE3" stroke-width="2"/>
</g>
<path d="M43 60C43 71.598 33.598 81 22 81C10.402 81 1 71.598 1 60C1 48.402 10.402 39 22 39C33.598 39 43 48.402 43 60Z" fill="#FF0420" stroke="#016BE3" stroke-width="2"/>
<path d="M15.5839 65.8468C14.2739 65.8468 13.2007 65.5385 12.3642 64.9221C11.5385 64.2946 11.1257 63.4029 11.1257 62.2471C11.1257 62.0049 11.1531 61.7078 11.2081 61.3554C11.3515 60.5629 11.5551 59.6107 11.8192 58.4988C12.5677 55.4716 14.4997 53.958 17.6151 53.958C18.4626 53.958 19.2221 54.1012 19.8936 54.3873C20.5653 54.6625 21.0936 55.0809 21.4788 55.6424C21.8641 56.1927 22.0569 56.8532 22.0569 57.6237C22.0569 57.8549 22.0293 58.1466 21.9741 58.4988C21.8091 59.4785 21.6109 60.4307 21.3798 61.3554C20.9944 62.8636 20.3285 63.9919 19.3818 64.7404C18.435 65.4779 17.1691 65.8468 15.5839 65.8468ZM15.8151 63.4689C16.4316 63.4689 16.9544 63.2874 17.3839 62.9242C17.8242 62.5609 18.1378 62.0049 18.325 61.2564C18.5781 60.2216 18.7709 59.3189 18.9029 58.5484C18.9469 58.3172 18.9689 58.0806 18.9689 57.8383C18.9689 56.8366 18.446 56.3357 17.4003 56.3357C16.7838 56.3357 16.2555 56.5173 15.8151 56.8806C15.3858 57.244 15.0776 57.7999 14.8904 58.5484C14.6923 59.2859 14.4941 60.1886 14.2961 61.2564C14.2519 61.4766 14.2299 61.7078 14.2299 61.9499C14.2299 62.9626 14.7584 63.4689 15.8151 63.4689Z" fill="white"/>
<path d="M22.8188 65.6822C22.6976 65.6822 22.604 65.6436 22.538 65.5666C22.483 65.4784 22.4664 65.3794 22.4884 65.2694L24.7671 54.5365C24.7891 54.4153 24.8497 54.3163 24.9487 54.2391C25.0479 54.1621 25.1524 54.1235 25.2624 54.1235H29.6548C30.8767 54.1235 31.8564 54.3769 32.5939 54.8832C33.3425 55.3896 33.7167 56.1216 33.7167 57.0793C33.7167 57.3545 33.6837 57.6407 33.6177 57.9378C33.3425 59.2038 32.7866 60.1395 31.9499 60.745C31.1244 61.3504 29.9904 61.6531 28.5484 61.6531H26.3193L25.5598 65.2694C25.5376 65.3904 25.4772 65.4894 25.3782 65.5666C25.279 65.6436 25.1744 65.6822 25.0644 65.6822H22.8188ZM28.664 59.3744C29.1263 59.3744 29.5281 59.2478 29.8694 58.9947C30.2216 58.7415 30.4528 58.3782 30.5629 57.9048C30.5959 57.7177 30.6125 57.5527 30.6125 57.4095C30.6125 57.0903 30.5189 56.8482 30.3318 56.683C30.1446 56.5068 29.8254 56.4188 29.3741 56.4188H27.3926L26.765 59.3744H28.664Z" fill="white"/>
<rect x="1" y="77" width="42" height="42" rx="21" fill="white" stroke="#016BE3" stroke-width="2"/>
<path d="M28.3483 93.9139C27.8905 93.6554 27.2954 93.6554 26.7919 93.9139L23.2211 95.896L20.7949 97.1887L17.2242 99.1708C16.7664 99.4293 16.1713 99.4293 15.6677 99.1708L12.8295 97.6195C12.3717 97.361 12.0513 96.8871 12.0513 96.37V93.3106C12.0513 92.7936 12.3259 92.3196 12.8295 92.0611L15.622 90.5529C16.0797 90.2944 16.6749 90.2944 17.1784 90.5529L19.9709 92.0611C20.4287 92.3196 20.7491 92.7936 20.7491 93.3106V95.2927L23.1754 93.957V91.9749C23.1754 91.4578 22.9008 90.9838 22.3972 90.7253L17.2242 87.8814C16.7664 87.6229 16.1713 87.6229 15.6677 87.8814L10.4032 90.7253C9.89967 90.9838 9.625 91.4578 9.625 91.9749V97.7058C9.625 98.2228 9.89967 98.6968 10.4032 98.9554L15.6677 101.799C16.1255 102.058 16.7206 102.058 17.2242 101.799L20.7949 99.8602L23.2211 98.5245L26.7919 96.5854C27.2497 96.3269 27.8448 96.3269 28.3483 96.5854L31.1408 98.0935C31.5986 98.3521 31.919 98.8261 31.919 99.3432V102.402C31.919 102.92 31.6444 103.394 31.1408 103.652L28.3483 105.203C27.8905 105.462 27.2954 105.462 26.7919 105.203L23.9994 103.695C23.5416 103.437 23.2211 102.963 23.2211 102.446V100.463L20.7949 101.799V103.781C20.7949 104.298 21.0696 104.772 21.5731 105.031L26.8377 107.875C27.2954 108.133 27.8905 108.133 28.3941 107.875L33.6587 105.031C34.1164 104.772 34.4369 104.298 34.4369 103.781V98.0504C34.4369 97.5334 34.1622 97.0594 33.6587 96.8009L28.3483 93.9139Z" fill="#8347E5"/>
</g>
<defs>
<clipPath id="clip0_20323_6058">
<rect width="44" height="120" fill="white"/>
</clipPath>
<clipPath id="clip1_20323_6058">
<rect width="44" height="44" fill="white"/>
</clipPath>
</defs>
</svg>

<svg xmlns="http://www.w3.org/2000/svg" width="44" height="120" fill="none"><g clip-path="url(#a)"><g clip-path="url(#b)"><path fill="#213147" d="M31.384 13.043v-.021a.448.448 0 0 0-.84 0l-2.602 7.143a1.028 1.028 0 0 0 0 .624l6.945 19.044c-.648.469-1.324.904-2.022 1.301l-5.87-16.106a.448.448 0 0 0-.84 0l-2.603 7.143a1.028 1.028 0 0 0 0 .624l3.84 10.54A22.044 22.044 0 0 1 22 44c-1.738 0-3.428-.201-5.05-.582L29.685 8.482a.443.443 0 0 0-.409-.602V7.9h-5.013a.91.91 0 0 0-.839.58L11.445 41.308a21.936 21.936 0 0 1-2.036-1.264L20.927 8.482a.443.443 0 0 0-.409-.602l-.021.021h-5.013a.91.91 0 0 0-.84.58l-9.906 27.16A21.905 21.905 0 0 1 0 22C0 9.85 9.85 0 22 0s22 9.85 22 22c0 5.005-1.67 9.619-4.486 13.315l-8.13-22.272Z"/><path fill="#12AAFF" d="M32.865 41.134a21.851 21.851 0 0 1-5.473 2.2l-3.84-10.54a1.03 1.03 0 0 1 0-.623l2.604-7.143a.448.448 0 0 1 .839 0l5.87 16.106ZM39.514 35.315a22.124 22.124 0 0 1-4.627 4.518l-6.945-19.044a1.028 1.028 0 0 1 0-.624l2.603-7.143a.448.448 0 0 1 .839 0v.021l8.13 22.272Z"/><path fill="#fff" d="M20.927 8.482 9.41 40.042a22.118 22.118 0 0 1-4.67-4.402l9.906-27.158a.91.91 0 0 1 .839-.581h5.013l.022-.022c.3 0 .516.302.408.603ZM29.684 8.482 16.951 43.417a21.838 21.838 0 0 1-5.506-2.11L23.423 8.482a.91.91 0 0 1 .84-.581h5.012v-.022c.302 0 .517.302.41.603Z"/><circle cx="22" cy="22" r="21" stroke="#5AB4F5" stroke-width="2"/></g><path fill="#FF0420" stroke="#5AB4F5" stroke-width="2" d="M43 60c0 11.598-9.402 21-21 21S1 71.598 1 60s9.402-21 21-21 21 9.402 21 21Z"/><path fill="#fff" d="M15.584 65.847c-1.31 0-2.383-.308-3.22-.925-.825-.627-1.238-1.52-1.238-2.675 0-.242.027-.54.082-.892.143-.792.347-1.744.611-2.856.749-3.027 2.68-4.541 5.796-4.541.848 0 1.607.143 2.279.43.671.275 1.2.693 1.585 1.254.385.55.578 1.211.578 1.982 0 .23-.028.523-.083.875a37.39 37.39 0 0 1-.594 2.856c-.386 1.509-1.052 2.637-1.998 3.385-.947.738-2.213 1.107-3.798 1.107Zm.231-2.378c.617 0 1.14-.182 1.569-.545.44-.363.754-.92.941-1.668.253-1.034.446-1.937.578-2.708a3.79 3.79 0 0 0 .066-.71c0-1.001-.523-1.502-1.569-1.502-.616 0-1.144.181-1.585.545-.43.363-.737.919-.925 1.667-.198.738-.396 1.64-.594 2.708-.044.22-.066.452-.066.694 0 1.013.528 1.519 1.585 1.519ZM22.819 65.682a.35.35 0 0 1-.281-.115.395.395 0 0 1-.05-.298l2.28-10.733a.473.473 0 0 1 .18-.297.504.504 0 0 1 .314-.115h4.393c1.222 0 2.201.253 2.939.76.748.506 1.123 1.238 1.123 2.195 0 .276-.033.562-.1.859-.274 1.266-.83 2.201-1.667 2.807-.826.605-1.96.908-3.402.908H26.32l-.76 3.616a.474.474 0 0 1-.18.298.504.504 0 0 1-.315.115H22.82Zm5.845-6.308c.462 0 .864-.126 1.205-.38.353-.252.584-.616.694-1.09.033-.186.05-.351.05-.495 0-.319-.094-.56-.281-.726-.187-.176-.507-.264-.958-.264h-1.981l-.628 2.955h1.899Z"/><circle cx="22" cy="98" r="21" fill="#0052FF" stroke="#5AB4F5" stroke-width="2"/><g clip-path="url(#c)"><path fill="#fff" d="M21.973 113.328c8.48 0 15.354-6.862 15.354-15.328 0-8.465-6.874-15.327-15.354-15.327-8.045 0-14.644 6.178-15.3 14.039h20.294v2.577H6.673c.656 7.861 7.255 14.039 15.3 14.039Z"/></g></g><defs><clipPath id="a"><path fill="#fff" d="M0 0h44v120H0z"/></clipPath><clipPath id="b"><path fill="#fff" d="M0 0h44v44H0z"/></clipPath><clipPath id="c"><path fill="#fff" d="M6.188 82.188h31.625v31.624H6.186z"/></clipPath></defs></svg>
